X: 37411
T: Sleigh Ride
R: polka
M: 2/4
K: Cmajor
.g .g.g|ga g/e/c|de d/c/A|G4-|GA Bd|
g>a g/e/d/c/|d>e d/c/A|c4-|c.g .g.g|
ga g/e/c|dd/e/ d/c/A|G4-|GG/A/ B/c/d/e/|
g>a g/e/d/c/|d>e d/c/A|c4-|c3||
K: Dmaj
F/G/|dF/G/ dF/G/|de c2-|cd c/A/F|B4-|
Bc B/G/E/G/|Bd ce|A4-|A3||
K: Cmaj
E/F/|cE/F/ cE/F/|cd B2-|Bc B/G/E|A4-|
Ad A/G/D|GA/d/ A/G/D|GA/d/ gd|G||

